X:1
T: The Abbey Craig
C:Alexander Walker
R:Strathspey
Q:128
K:E
M:4/4
L:1/16
|:c2|BE3 G3E CE3 B,4|G3E B3E CF3 F3c|BE3 G3E C3E B,3c|B3e f3a ge3 e2c2|
BE3 G3E CE3 B,4|G3E B3E CF3 F3c|BE3 G3E C3E B,3c|B3e f3a ge3 e2g2|
agfe b3e g3e b3g|a3f g3e fF3 F3A|G3E B3E c3E d3E|c3f B3d eE3 E3g|
agfe b3e g3e b3g|a3f g3e fF3 F3d|(3e2f2g2 (3f2e2d2 (3c2d2e2 (3B2A2G2|(3A2B2c2 (3B2c2d2 eE3 E2:|
